(Block-name: Header)
(Block-expand: 0)
(Block-enable: 1)
%
(Header)
(Generated by gcodetools from Inkscape.)
(Using default header. To add your own header create file "header" in the output dir.)
M3
(Header end.)
G21 (All units in mm)

(Start cutting path id: path4)
(Change tool to Default tool)

G00 Z20.000000
(Block-name: block)
(Block-expand: 0)
(Block-enable: 0)
G00 X198.245558 Y147.664374

G01 Z-0.125000 F100.0(Penetrate)
G01 X99.245658 Y147.664374 Z-0.125000 F400.000000
G01 X99.245658 Y88.664479 Z-0.125000
G01 X198.245558 Y88.664479 Z-0.125000
G01 X198.245558 Y147.664374 Z-0.125000
G00 Z20.000000
(Block-name: path4)
(Block-expand: 0)
(Block-enable: 0)

(End cutting path id: path4)


(Start cutting path id: path4)
(Change tool to Default tool)

G00 Z20.000000
G00 X165.052558 Y94.701929

G01 Z-0.125000 F100.0(Penetrate)
G01 X162.685258 Y95.000999 Z-0.125000 F400.000000
G01 X160.374158 Y95.594259 Z-0.125000
G01 X158.155758 Y96.472705 Z-0.125000
G01 X156.064858 Y97.622145 Z-0.125000
G01 X154.134558 Y99.024578 Z-0.125000
G01 X152.395258 Y100.658078 Z-0.125000
G01 X150.874258 Y102.496379 Z-0.125000
G01 X149.595658 Y104.511078 Z-0.125000
G01 X148.579758 Y106.669978 Z-0.125000
G01 X147.842458 Y108.939277 Z-0.125000
G01 X147.395358 Y111.283078 Z-0.125000
G01 X147.245558 Y113.664476 Z-0.125000
G01 X147.395358 Y116.045779 Z-0.125000
G01 X147.842458 Y118.389474 Z-0.125000
G01 X148.579758 Y120.658776 Z-0.125000
G01 X149.595658 Y122.817776 Z-0.125000
G01 X150.874258 Y124.832376 Z-0.125000
G01 X152.395258 Y126.670776 Z-0.125000
G01 X154.134558 Y128.304176 Z-0.125000
G01 X156.064858 Y129.706676 Z-0.125000
G01 X158.155758 Y130.856076 Z-0.125000
G01 X160.374158 Y131.734576 Z-0.125000
G01 X162.685258 Y132.327776 Z-0.125000
G01 X165.052558 Y132.626876 Z-0.125000
G01 X167.438558 Y132.626876 Z-0.125000
G01 X169.805858 Y132.327776 Z-0.125000
G01 X172.116858 Y131.734576 Z-0.125000
G01 X174.335358 Y130.856076 Z-0.125000
G01 X176.426258 Y129.706676 Z-0.125000
G01 X178.356658 Y128.304176 Z-0.125000
G01 X180.096058 Y126.670776 Z-0.125000
G01 X181.616858 Y124.832376 Z-0.125000
G01 X182.895358 Y122.817776 Z-0.125000
G01 X183.911358 Y120.658776 Z-0.125000
G01 X184.648658 Y118.389474 Z-0.125000
G01 X185.095758 Y116.045779 Z-0.125000
G01 X185.245558 Y113.664476 Z-0.125000
G01 X185.095758 Y111.283078 Z-0.125000
G01 X184.648658 Y108.939277 Z-0.125000
G01 X183.911358 Y106.669978 Z-0.125000
G01 X182.895358 Y104.511078 Z-0.125000
G01 X181.616858 Y102.496379 Z-0.125000
G01 X180.096058 Y100.658078 Z-0.125000
G01 X178.356658 Y99.024578 Z-0.125000
G01 X176.426258 Y97.622148 Z-0.125000
G01 X174.335358 Y96.472709 Z-0.125000
G01 X172.116858 Y95.594309 Z-0.125000
G01 X169.805858 Y95.001009 Z-0.125000
G01 X167.438558 Y94.701909 Z-0.125000
G01 X165.052558 Y94.701929 Z-0.125000
G00 Z20.000000
(Block-name: path4 [in,cut])
(Block-expand: 1)
(Block-enable: 1)
g0 x165.152445 y96.289428
g1 z0 f500
g1 x162.983276 y96.563468 f1200
g1 x160.865689 y97.107053
g1 x158.83304 y97.911945
g1 x156.917152 y98.965175
g1 x155.148504 y100.250161
g1 x153.554771 y101.746949
g1 x152.161075 y103.431389
g1 x150.989542 y105.277382
g1 x150.058702 y107.255519
g1 x149.383127 y109.334839
g1 x148.973456 y111.482428
g1 x148.836196 y113.664474
g1 x148.973455 y115.84642
g1 x149.383125 y117.993906
g1 x150.058707 y120.073248
g1 x150.989542 y122.051468
g1 x152.161075 y123.89737
g1 x153.554771 y125.5819
g1 x155.148498 y127.078591
g1 x156.917158 y128.363648
g1 x158.833044 y129.41684
g1 x160.865688 y130.221779
g1 x162.983266 y130.765307
g1 x165.152448 y131.039376
g1 x167.338668 y131.039376
g1 x169.507842 y130.765309
g1 x171.625333 y130.221779
g1 x173.658083 y129.416834
g1 x175.573975 y128.363639
g1 x177.342751 y127.078564
g1 x178.936522 y125.581918
g1 x180.329996 y123.897435
g1 x181.501479 y122.051468
g1 x182.432419 y120.07322
g1 x183.107991 y117.993906
g1 x183.517661 y115.84642
g1 x183.65492 y113.664474
g1 x183.51766 y111.482428
g1 x183.107989 y109.334839
g1 x182.432423 y107.255548
g1 x181.501479 y105.277382
g1 x180.329996 y103.431324
g1 x178.936522 y101.746932
g1 x177.342745 y100.250189
g1 x175.573982 y98.965188
g1 x173.658099 y97.911962
g1 x171.625333 y97.107101
g1 x169.50781 y96.563472
g1 x167.338674 y96.28941
g1 x165.152445 y96.289428
g1 z-0.5 f500
g1 x162.983276 y96.563468 f1200
g1 x160.865689 y97.107053
g1 x158.83304 y97.911945
g1 x156.917152 y98.965175
g1 x155.148504 y100.250161
g1 x153.554771 y101.746949
g1 x152.161075 y103.431389
g1 x150.989542 y105.277382
g1 x150.058702 y107.255519
g1 x149.383127 y109.334839
g1 x148.973456 y111.482428
g1 x148.836196 y113.664474
g1 x148.973455 y115.84642
g1 x149.383125 y117.993906
g1 x150.058707 y120.073248
g1 x150.989542 y122.051468
g1 x152.161075 y123.89737
g1 x153.554771 y125.5819
g1 x155.148498 y127.078591
g1 x156.917158 y128.363648
g1 x158.833044 y129.41684
g1 x160.865688 y130.221779
g1 x162.983266 y130.765307
g1 x165.152448 y131.039376
g1 x167.338668 y131.039376
g1 x169.507842 y130.765309
g1 x171.625333 y130.221779
g1 x173.658083 y129.416834
g1 x175.573975 y128.363639
g1 x177.342751 y127.078564
g1 x178.936522 y125.581918
g1 x180.329996 y123.897435
g1 x181.501479 y122.051468
g1 x182.432419 y120.07322
g1 x183.107991 y117.993906
g1 x183.517661 y115.84642
g1 x183.65492 y113.664474
g1 x183.51766 y111.482428
g1 x183.107989 y109.334839
g1 x182.432423 y107.255548
g1 x181.501479 y105.277382
g1 x180.329996 y103.431324
g1 x178.936522 y101.746932
g1 x177.342745 y100.250189
g1 x175.573982 y98.965188
g1 x173.658099 y97.911962
g1 x171.625333 y97.107101
g1 x169.50781 y96.563472
g1 x167.338674 y96.28941
g1 x165.152445 y96.289428
g1 z-1 f500
g1 x162.983276 y96.563468 f1200
g1 x160.865689 y97.107053
g1 x158.83304 y97.911945
g1 x156.917152 y98.965175
g1 x155.148504 y100.250161
g1 x153.554771 y101.746949
g1 x152.161075 y103.431389
g1 x150.989542 y105.277382
g1 x150.058702 y107.255519
g1 x149.383127 y109.334839
g1 x148.973456 y111.482428
g1 x148.836196 y113.664474
g1 x148.973455 y115.84642
g1 x149.383125 y117.993906
g1 x150.058707 y120.073248
g1 x150.989542 y122.051468
g1 x152.161075 y123.89737
g1 x153.554771 y125.5819
g1 x155.148498 y127.078591
g1 x156.917158 y128.363648
g1 x158.833044 y129.41684
g1 x160.865688 y130.221779
g1 x162.983266 y130.765307
g1 x165.152448 y131.039376
g1 x167.338668 y131.039376
g1 x169.507842 y130.765309
g1 x171.625333 y130.221779
g1 x173.658083 y129.416834
g1 x175.573975 y128.363639
g1 x177.342751 y127.078564
g1 x178.936522 y125.581918
g1 x180.329996 y123.897435
g1 x181.501479 y122.051468
g1 x182.432419 y120.07322
g1 x183.107991 y117.993906
g1 x183.517661 y115.84642
g1 x183.65492 y113.664474
g1 x183.51766 y111.482428
g1 x183.107989 y109.334839
g1 x182.432423 y107.255548
g1 x181.501479 y105.277382
g1 x180.329996 y103.431324
g1 x178.936522 y101.746932
g1 x177.342745 y100.250189
g1 x175.573982 y98.965188
g1 x173.658099 y97.911962
g1 x171.625333 y97.107101
g1 x169.50781 y96.563472
g1 x167.338674 y96.28941
g1 x165.152445 y96.289428
g1 z-1.5 f500
g1 x162.983276 y96.563468 f1200
g1 x160.865689 y97.107053
g1 x158.83304 y97.911945
g1 x156.917152 y98.965175
g1 x155.148504 y100.250161
g1 x153.554771 y101.746949
g1 x152.161075 y103.431389
g1 x150.989542 y105.277382
g1 x150.058702 y107.255519
g1 x149.383127 y109.334839
g1 x148.973456 y111.482428
g1 x148.836196 y113.664474
g1 x148.973455 y115.84642
g1 x149.383125 y117.993906
g1 x150.058707 y120.073248
g1 x150.989542 y122.051468
g1 x152.161075 y123.89737
g1 x153.554771 y125.5819
g1 x155.148498 y127.078591
g1 x156.917158 y128.363648
g1 x158.833044 y129.41684
g1 x160.865688 y130.221779
g1 x162.983266 y130.765307
g1 x165.152448 y131.039376
g1 x167.338668 y131.039376
g1 x169.507842 y130.765309
g1 x171.625333 y130.221779
g1 x173.658083 y129.416834
g1 x175.573975 y128.363639
g1 x177.342751 y127.078564
g1 x178.936522 y125.581918
g1 x180.329996 y123.897435
g1 x181.501479 y122.051468
g1 x182.432419 y120.07322
g1 x183.107991 y117.993906
g1 x183.517661 y115.84642
g1 x183.65492 y113.664474
g1 x183.51766 y111.482428
g1 x183.107989 y109.334839
g1 x182.432423 y107.255548
g1 x181.501479 y105.277382
g1 x180.329996 y103.431324
g1 x178.936522 y101.746932
g1 x177.342745 y100.250189
g1 x175.573982 y98.965188
g1 x173.658099 y97.911962
g1 x171.625333 y97.107101
g1 x169.50781 y96.563472
g1 x167.338674 y96.28941
g1 x165.152445 y96.289428
g0 z30
(Block-name: path4)
(Block-expand: 0)
(Block-enable: 0)

(End cutting path id: path4)


(Start cutting path id: path4)
(Change tool to Default tool)

G00 Z20.000000
G00 X149.885758 Y128.167774

G01 Z-0.125000 F100.0(Penetrate)
G01 X149.667758 Y128.195374 Z-0.125000 F400.000000
G01 X149.454858 Y128.250074 Z-0.125000
G01 X149.250558 Y128.330874 Z-0.125000
G01 X149.057858 Y128.436774 Z-0.125000
G01 X148.880058 Y128.566074 Z-0.125000
G01 X148.719858 Y128.716474 Z-0.125000
G01 X148.579758 Y128.885774 Z-0.125000
G01 X148.462158 Y129.071274 Z-0.125000
G01 X148.368158 Y129.270274 Z-0.125000
G01 X148.300158 Y129.479174 Z-0.125000
G01 X148.259158 Y129.695074 Z-0.125000
G01 X148.245158 Y129.914474 Z-0.125000
G01 X148.259158 Y130.133774 Z-0.125000
G01 X148.300158 Y130.349674 Z-0.125000
G01 X148.368158 Y130.558574 Z-0.125000
G01 X148.462158 Y130.757474 Z-0.125000
G01 X148.579758 Y130.943074 Z-0.125000
G01 X148.719858 Y131.112274 Z-0.125000
G01 X148.880058 Y131.262774 Z-0.125000
G01 X149.057858 Y131.391974 Z-0.125000
G01 X149.250558 Y131.497874 Z-0.125000
G01 X149.454858 Y131.578874 Z-0.125000
G01 X149.667758 Y131.633874 Z-0.125000
G01 X149.885758 Y131.661874 Z-0.125000
G01 X150.105458 Y131.661874 Z-0.125000
G01 X150.323558 Y131.633874 Z-0.125000
G01 X150.536358 Y131.578874 Z-0.125000
G01 X150.740758 Y131.497874 Z-0.125000
G01 X150.933258 Y131.391974 Z-0.125000
G01 X151.111058 Y131.262774 Z-0.125000
G01 X151.271258 Y131.112274 Z-0.125000
G01 X151.411358 Y130.943074 Z-0.125000
G01 X151.529158 Y130.757474 Z-0.125000
G01 X151.622158 Y130.558574 Z-0.125000
G01 X151.690158 Y130.349674 Z-0.125000
G01 X151.731158 Y130.133774 Z-0.125000
G01 X151.745158 Y129.914474 Z-0.125000
G01 X151.731158 Y129.695074 Z-0.125000
G01 X151.690158 Y129.479174 Z-0.125000
G01 X151.622158 Y129.270274 Z-0.125000
G01 X151.529158 Y129.071274 Z-0.125000
G01 X151.411358 Y128.885774 Z-0.125000
G01 X151.271258 Y128.716474 Z-0.125000
G01 X151.111058 Y128.566074 Z-0.125000
G01 X150.933258 Y128.436774 Z-0.125000
G01 X150.740758 Y128.330874 Z-0.125000
G01 X150.536358 Y128.249874 Z-0.125000
G01 X150.323558 Y128.194874 Z-0.125000
G01 X150.105458 Y128.166874 Z-0.125000
G01 X149.885758 Y128.167774 Z-0.125000
G00 Z20.000000
(Block-name: path4 [in,cut])
(Block-expand: 0)
(Block-enable: 1)
g0 x149.98909 y129.754864
g1 z0 f500
g1 x149.966151 y129.757768 f1200
g1 x149.946224 y129.762888
g1 x149.927447 y129.770314
g1 x149.910378 y129.779695
g1 x149.894147 y129.791499
g1 x149.879233 y129.8055
g1 x149.866786 y129.820541
g1 x149.855577 y129.838222
g1 x149.846551 y129.85733
g1 x149.840948 y129.874544
g1 x149.837163 y129.894474
g1 x149.835888 y129.914451
g1 x149.837159 y129.934351
g1 x149.840948 y129.954304
g1 x149.846503 y129.971371
g1 x149.855577 y129.990571
g1 x149.866786 y130.008261
g1 x149.879233 y130.023293
g1 x149.894147 y130.037304
g1 x149.910121 y130.048912
g1 x149.928038 y130.058759
g1 x149.947856 y130.066616
g1 x149.968589 y130.071972
g1 x149.987291 y130.074374
g1 x150.003972 y130.074374
g1 x150.022682 y130.071972
g1 x150.043405 y130.066616
g1 x150.06307 y130.058823
g1 x150.080712 y130.049118
g1 x150.096969 y130.037304
g1 x150.111883 y130.023293
g1 x150.124721 y130.007789
g1 x150.134242 y129.992788
g1 x150.142797 y129.974491
g1 x150.149368 y129.954304
g1 x150.153157 y129.934351
g1 x150.154428 y129.914451
g1 x150.153153 y129.894474
g1 x150.149368 y129.874544
g1 x150.142749 y129.85421
g1 x150.134242 y129.836006
g1 x150.124721 y129.821013
g1 x150.111883 y129.8055
g1 x150.096969 y129.791499
g1 x150.080455 y129.779489
g1 x150.06307 y129.769925
g1 x150.043405 y129.762132
g1 x150.022682 y129.756776
g1 x149.98909 y129.754864
g1 z-0.5 f500
g1 x149.966151 y129.757768 f1200
g1 x149.946224 y129.762888
g1 x149.927447 y129.770314
g1 x149.910378 y129.779695
g1 x149.894147 y129.791499
g1 x149.879233 y129.8055
g1 x149.866786 y129.820541
g1 x149.855577 y129.838222
g1 x149.846551 y129.85733
g1 x149.840948 y129.874544
g1 x149.837163 y129.894474
g1 x149.835888 y129.914451
g1 x149.837159 y129.934351
g1 x149.840948 y129.954304
g1 x149.846503 y129.971371
g1 x149.855577 y129.990571
g1 x149.866786 y130.008261
g1 x149.879233 y130.023293
g1 x149.894147 y130.037304
g1 x149.910121 y130.048912
g1 x149.928038 y130.058759
g1 x149.947856 y130.066616
g1 x149.968589 y130.071972
g1 x149.987291 y130.074374
g1 x150.003972 y130.074374
g1 x150.022682 y130.071972
g1 x150.043405 y130.066616
g1 x150.06307 y130.058823
g1 x150.080712 y130.049118
g1 x150.096969 y130.037304
g1 x150.111883 y130.023293
g1 x150.124721 y130.007789
g1 x150.134242 y129.992788
g1 x150.142797 y129.974491
g1 x150.149368 y129.954304
g1 x150.153157 y129.934351
g1 x150.154428 y129.914451
g1 x150.153153 y129.894474
g1 x150.149368 y129.874544
g1 x150.142749 y129.85421
g1 x150.134242 y129.836006
g1 x150.124721 y129.821013
g1 x150.111883 y129.8055
g1 x150.096969 y129.791499
g1 x150.080455 y129.779489
g1 x150.06307 y129.769925
g1 x150.043405 y129.762132
g1 x150.022682 y129.756776
g1 x149.98909 y129.754864
g1 z-1 f500
g1 x149.966151 y129.757768 f1200
g1 x149.946224 y129.762888
g1 x149.927447 y129.770314
g1 x149.910378 y129.779695
g1 x149.894147 y129.791499
g1 x149.879233 y129.8055
g1 x149.866786 y129.820541
g1 x149.855577 y129.838222
g1 x149.846551 y129.85733
g1 x149.840948 y129.874544
g1 x149.837163 y129.894474
g1 x149.835888 y129.914451
g1 x149.837159 y129.934351
g1 x149.840948 y129.954304
g1 x149.846503 y129.971371
g1 x149.855577 y129.990571
g1 x149.866786 y130.008261
g1 x149.879233 y130.023293
g1 x149.894147 y130.037304
g1 x149.910121 y130.048912
g1 x149.928038 y130.058759
g1 x149.947856 y130.066616
g1 x149.968589 y130.071972
g1 x149.987291 y130.074374
g1 x150.003972 y130.074374
g1 x150.022682 y130.071972
g1 x150.043405 y130.066616
g1 x150.06307 y130.058823
g1 x150.080712 y130.049118
g1 x150.096969 y130.037304
g1 x150.111883 y130.023293
g1 x150.124721 y130.007789
g1 x150.134242 y129.992788
g1 x150.142797 y129.974491
g1 x150.149368 y129.954304
g1 x150.153157 y129.934351
g1 x150.154428 y129.914451
g1 x150.153153 y129.894474
g1 x150.149368 y129.874544
g1 x150.142749 y129.85421
g1 x150.134242 y129.836006
g1 x150.124721 y129.821013
g1 x150.111883 y129.8055
g1 x150.096969 y129.791499
g1 x150.080455 y129.779489
g1 x150.06307 y129.769925
g1 x150.043405 y129.762132
g1 x150.022682 y129.756776
g1 x149.98909 y129.754864
g1 z-1.5 f500
g1 x149.966151 y129.757768 f1200
g1 x149.946224 y129.762888
g1 x149.927447 y129.770314
g1 x149.910378 y129.779695
g1 x149.894147 y129.791499
g1 x149.879233 y129.8055
g1 x149.866786 y129.820541
g1 x149.855577 y129.838222
g1 x149.846551 y129.85733
g1 x149.840948 y129.874544
g1 x149.837163 y129.894474
g1 x149.835888 y129.914451
g1 x149.837159 y129.934351
g1 x149.840948 y129.954304
g1 x149.846503 y129.971371
g1 x149.855577 y129.990571
g1 x149.866786 y130.008261
g1 x149.879233 y130.023293
g1 x149.894147 y130.037304
g1 x149.910121 y130.048912
g1 x149.928038 y130.058759
g1 x149.947856 y130.066616
g1 x149.968589 y130.071972
g1 x149.987291 y130.074374
g1 x150.003972 y130.074374
g1 x150.022682 y130.071972
g1 x150.043405 y130.066616
g1 x150.06307 y130.058823
g1 x150.080712 y130.049118
g1 x150.096969 y130.037304
g1 x150.111883 y130.023293
g1 x150.124721 y130.007789
g1 x150.134242 y129.992788
g1 x150.142797 y129.974491
g1 x150.149368 y129.954304
g1 x150.153157 y129.934351
g1 x150.154428 y129.914451
g1 x150.153153 y129.894474
g1 x150.149368 y129.874544
g1 x150.142749 y129.85421
g1 x150.134242 y129.836006
g1 x150.124721 y129.821013
g1 x150.111883 y129.8055
g1 x150.096969 y129.791499
g1 x150.080455 y129.779489
g1 x150.06307 y129.769925
g1 x150.043405 y129.762132
g1 x150.022682 y129.756776
g1 x149.98909 y129.754864
g0 z30
(Block-name: path4)
(Block-expand: 0)
(Block-enable: 0)

(End cutting path id: path4)


(Start cutting path id: path4)
(Change tool to Default tool)

G00 Z20.000000
G00 X182.385758 Y128.167774

G01 Z-0.125000 F100.0(Penetrate)
G01 X182.167758 Y128.195774 Z-0.125000 F400.000000
G01 X181.954858 Y128.250074 Z-0.125000
G01 X181.750558 Y128.330874 Z-0.125000
G01 X181.557858 Y128.436774 Z-0.125000
G01 X181.380058 Y128.566074 Z-0.125000
G01 X181.219858 Y128.716474 Z-0.125000
G01 X181.079758 Y128.885774 Z-0.125000
G01 X180.962158 Y129.071274 Z-0.125000
G01 X180.868158 Y129.270274 Z-0.125000
G01 X180.800158 Y129.479174 Z-0.125000
G01 X180.759158 Y129.695074 Z-0.125000
G01 X180.745158 Y129.914474 Z-0.125000
G01 X180.759158 Y130.133774 Z-0.125000
G01 X180.800158 Y130.349674 Z-0.125000
G01 X180.868158 Y130.558574 Z-0.125000
G01 X180.962158 Y130.757474 Z-0.125000
G01 X181.079758 Y130.943074 Z-0.125000
G01 X181.219858 Y131.112274 Z-0.125000
G01 X181.380058 Y131.262774 Z-0.125000
G01 X181.557858 Y131.391974 Z-0.125000
G01 X181.750558 Y131.497874 Z-0.125000
G01 X181.954858 Y131.578874 Z-0.125000
G01 X182.167758 Y131.633874 Z-0.125000
G01 X182.385758 Y131.661874 Z-0.125000
G01 X182.605458 Y131.661874 Z-0.125000
G01 X182.823558 Y131.633874 Z-0.125000
G01 X183.036358 Y131.578874 Z-0.125000
G01 X183.240758 Y131.497874 Z-0.125000
G01 X183.433258 Y131.391974 Z-0.125000
G01 X183.611058 Y131.262774 Z-0.125000
G01 X183.771258 Y131.112274 Z-0.125000
G01 X183.911358 Y130.943074 Z-0.125000
G01 X184.029158 Y130.757474 Z-0.125000
G01 X184.123158 Y130.558574 Z-0.125000
G01 X184.191158 Y130.349674 Z-0.125000
G01 X184.232158 Y130.133774 Z-0.125000
G01 X184.246158 Y129.914474 Z-0.125000
G01 X184.232158 Y129.695074 Z-0.125000
G01 X184.191158 Y129.479174 Z-0.125000
G01 X184.123158 Y129.270274 Z-0.125000
G01 X184.029158 Y129.071274 Z-0.125000
G01 X183.911358 Y128.885774 Z-0.125000
G01 X183.771258 Y128.716474 Z-0.125000
G01 X183.611058 Y128.566074 Z-0.125000
G01 X183.433258 Y128.436774 Z-0.125000
G01 X183.240758 Y128.330874 Z-0.125000
G01 X183.036358 Y128.249874 Z-0.125000
G01 X182.823558 Y128.194874 Z-0.125000
G01 X182.605458 Y128.166874 Z-0.125000
G01 X182.385758 Y128.167774 Z-0.125000
G00 Z20.000000
(Block-name: path4 [in,cut])
(Block-expand: 0)
(Block-enable: 1)
g0 x182.490528 y129.754858
g1 z0 f500
g1 x182.466151 y129.757989 f1200
g1 x182.444917 y129.763405
g1 x182.427447 y129.770314
g1 x182.410378 y129.779695
g1 x182.394147 y129.791499
g1 x182.379233 y129.8055
g1 x182.366786 y129.820541
g1 x182.355577 y129.838222
g1 x182.346551 y129.85733
g1 x182.340948 y129.874544
g1 x182.337163 y129.894474
g1 x182.335888 y129.914451
g1 x182.337159 y129.934351
g1 x182.340948 y129.954304
g1 x182.346503 y129.971371
g1 x182.355577 y129.990571
g1 x182.366786 y130.008261
g1 x182.379233 y130.023293
g1 x182.394147 y130.037304
g1 x182.410121 y130.048912
g1 x182.428038 y130.058759
g1 x182.447856 y130.066616
g1 x182.468589 y130.071972
g1 x182.487291 y130.074374
g1 x182.503972 y130.074374
g1 x182.522682 y130.071972
g1 x182.543405 y130.066616
g1 x182.56307 y130.058823
g1 x182.580712 y130.049118
g1 x182.596969 y130.037304
g1 x182.611883 y130.023293
g1 x182.624721 y130.007789
g1 x182.636001 y129.990017
g1 x182.644813 y129.971371
g1 x182.650368 y129.954304
g1 x182.654157 y129.934351
g1 x182.655428 y129.914451
g1 x182.654153 y129.894474
g1 x182.650368 y129.874544
g1 x182.644765 y129.85733
g1 x182.636001 y129.838776
g1 x182.624721 y129.821013
g1 x182.611883 y129.8055
g1 x182.596969 y129.791499
g1 x182.580455 y129.779489
g1 x182.56307 y129.769925
g1 x182.543405 y129.762132
g1 x182.522682 y129.756776
g1 x182.490528 y129.754858
g1 z-0.5 f500
g1 x182.466151 y129.757989 f1200
g1 x182.444917 y129.763405
g1 x182.427447 y129.770314
g1 x182.410378 y129.779695
g1 x182.394147 y129.791499
g1 x182.379233 y129.8055
g1 x182.366786 y129.820541
g1 x182.355577 y129.838222
g1 x182.346551 y129.85733
g1 x182.340948 y129.874544
g1 x182.337163 y129.894474
g1 x182.335888 y129.914451
g1 x182.337159 y129.934351
g1 x182.340948 y129.954304
g1 x182.346503 y129.971371
g1 x182.355577 y129.990571
g1 x182.366786 y130.008261
g1 x182.379233 y130.023293
g1 x182.394147 y130.037304
g1 x182.410121 y130.048912
g1 x182.428038 y130.058759
g1 x182.447856 y130.066616
g1 x182.468589 y130.071972
g1 x182.487291 y130.074374
g1 x182.503972 y130.074374
g1 x182.522682 y130.071972
g1 x182.543405 y130.066616
g1 x182.56307 y130.058823
g1 x182.580712 y130.049118
g1 x182.596969 y130.037304
g1 x182.611883 y130.023293
g1 x182.624721 y130.007789
g1 x182.636001 y129.990017
g1 x182.644813 y129.971371
g1 x182.650368 y129.954304
g1 x182.654157 y129.934351
g1 x182.655428 y129.914451
g1 x182.654153 y129.894474
g1 x182.650368 y129.874544
g1 x182.644765 y129.85733
g1 x182.636001 y129.838776
g1 x182.624721 y129.821013
g1 x182.611883 y129.8055
g1 x182.596969 y129.791499
g1 x182.580455 y129.779489
g1 x182.56307 y129.769925
g1 x182.543405 y129.762132
g1 x182.522682 y129.756776
g1 x182.490528 y129.754858
g1 z-1 f500
g1 x182.466151 y129.757989 f1200
g1 x182.444917 y129.763405
g1 x182.427447 y129.770314
g1 x182.410378 y129.779695
g1 x182.394147 y129.791499
g1 x182.379233 y129.8055
g1 x182.366786 y129.820541
g1 x182.355577 y129.838222
g1 x182.346551 y129.85733
g1 x182.340948 y129.874544
g1 x182.337163 y129.894474
g1 x182.335888 y129.914451
g1 x182.337159 y129.934351
g1 x182.340948 y129.954304
g1 x182.346503 y129.971371
g1 x182.355577 y129.990571
g1 x182.366786 y130.008261
g1 x182.379233 y130.023293
g1 x182.394147 y130.037304
g1 x182.410121 y130.048912
g1 x182.428038 y130.058759
g1 x182.447856 y130.066616
g1 x182.468589 y130.071972
g1 x182.487291 y130.074374
g1 x182.503972 y130.074374
g1 x182.522682 y130.071972
g1 x182.543405 y130.066616
g1 x182.56307 y130.058823
g1 x182.580712 y130.049118
g1 x182.596969 y130.037304
g1 x182.611883 y130.023293
g1 x182.624721 y130.007789
g1 x182.636001 y129.990017
g1 x182.644813 y129.971371
g1 x182.650368 y129.954304
g1 x182.654157 y129.934351
g1 x182.655428 y129.914451
g1 x182.654153 y129.894474
g1 x182.650368 y129.874544
g1 x182.644765 y129.85733
g1 x182.636001 y129.838776
g1 x182.624721 y129.821013
g1 x182.611883 y129.8055
g1 x182.596969 y129.791499
g1 x182.580455 y129.779489
g1 x182.56307 y129.769925
g1 x182.543405 y129.762132
g1 x182.522682 y129.756776
g1 x182.490528 y129.754858
g1 z-1.5 f500
g1 x182.466151 y129.757989 f1200
g1 x182.444917 y129.763405
g1 x182.427447 y129.770314
g1 x182.410378 y129.779695
g1 x182.394147 y129.791499
g1 x182.379233 y129.8055
g1 x182.366786 y129.820541
g1 x182.355577 y129.838222
g1 x182.346551 y129.85733
g1 x182.340948 y129.874544
g1 x182.337163 y129.894474
g1 x182.335888 y129.914451
g1 x182.337159 y129.934351
g1 x182.340948 y129.954304
g1 x182.346503 y129.971371
g1 x182.355577 y129.990571
g1 x182.366786 y130.008261
g1 x182.379233 y130.023293
g1 x182.394147 y130.037304
g1 x182.410121 y130.048912
g1 x182.428038 y130.058759
g1 x182.447856 y130.066616
g1 x182.468589 y130.071972
g1 x182.487291 y130.074374
g1 x182.503972 y130.074374
g1 x182.522682 y130.071972
g1 x182.543405 y130.066616
g1 x182.56307 y130.058823
g1 x182.580712 y130.049118
g1 x182.596969 y130.037304
g1 x182.611883 y130.023293
g1 x182.624721 y130.007789
g1 x182.636001 y129.990017
g1 x182.644813 y129.971371
g1 x182.650368 y129.954304
g1 x182.654157 y129.934351
g1 x182.655428 y129.914451
g1 x182.654153 y129.894474
g1 x182.650368 y129.874544
g1 x182.644765 y129.85733
g1 x182.636001 y129.838776
g1 x182.624721 y129.821013
g1 x182.611883 y129.8055
g1 x182.596969 y129.791499
g1 x182.580455 y129.779489
g1 x182.56307 y129.769925
g1 x182.543405 y129.762132
g1 x182.522682 y129.756776
g1 x182.490528 y129.754858
g0 z30
(Block-name: path4)
(Block-expand: 0)
(Block-enable: 0)

(End cutting path id: path4)


(Start cutting path id: path4)
(Change tool to Default tool)

G00 Z20.000000
G00 X182.385758 Y95.667809

G01 Z-0.125000 F100.0(Penetrate)
G01 X182.167758 Y95.695809 Z-0.125000 F400.000000
G01 X181.954858 Y95.750809 Z-0.125000
G01 X181.750558 Y95.831809 Z-0.125000
G01 X181.557858 Y95.937709 Z-0.125000
G01 X181.380058 Y96.066909 Z-0.125000
G01 X181.219858 Y96.217409 Z-0.125000
G01 X181.079758 Y96.386609 Z-0.125000
G01 X180.962158 Y96.572105 Z-0.125000
G01 X180.868158 Y96.771105 Z-0.125000
G01 X180.800158 Y96.980005 Z-0.125000
G01 X180.759158 Y97.195905 Z-0.125000
G01 X180.745158 Y97.415305 Z-0.125000
G01 X180.759158 Y97.634605 Z-0.125000
G01 X180.800158 Y97.850505 Z-0.125000
G01 X180.868158 Y98.059405 Z-0.125000
G01 X180.962158 Y98.258405 Z-0.125000
G01 X181.079758 Y98.443905 Z-0.125000
G01 X181.219858 Y98.613105 Z-0.125000
G01 X181.380058 Y98.763605 Z-0.125000
G01 X181.557858 Y98.892805 Z-0.125000
G01 X181.750558 Y98.998705 Z-0.125000
G01 X181.954858 Y99.079705 Z-0.125000
G01 X182.167758 Y99.134705 Z-0.125000
G01 X182.385758 Y99.162705 Z-0.125000
G01 X182.605458 Y99.162705 Z-0.125000
G01 X182.823558 Y99.134705 Z-0.125000
G01 X183.036358 Y99.079705 Z-0.125000
G01 X183.240758 Y98.998705 Z-0.125000
G01 X183.433258 Y98.892805 Z-0.125000
G01 X183.611058 Y98.763605 Z-0.125000
G01 X183.771258 Y98.613105 Z-0.125000
G01 X183.911358 Y98.443905 Z-0.125000
G01 X184.029158 Y98.258405 Z-0.125000
G01 X184.123158 Y98.059405 Z-0.125000
G01 X184.191158 Y97.850505 Z-0.125000
G01 X184.232158 Y97.634605 Z-0.125000
G01 X184.246158 Y97.415305 Z-0.125000
G01 X184.232158 Y97.195905 Z-0.125000
G01 X184.191158 Y96.980005 Z-0.125000
G01 X184.123158 Y96.771105 Z-0.125000
G01 X184.029158 Y96.572105 Z-0.125000
G01 X183.911358 Y96.386609 Z-0.125000
G01 X183.771258 Y96.217409 Z-0.125000
G01 X183.611058 Y96.066909 Z-0.125000
G01 X183.433258 Y95.937709 Z-0.125000
G01 X183.240758 Y95.831809 Z-0.125000
G01 X183.036358 Y95.750809 Z-0.125000
G01 X182.823558 Y95.695809 Z-0.125000
G01 X182.605458 Y95.667809 Z-0.125000
G01 X182.385758 Y95.667809 Z-0.125000
G00 Z20.000000
(Block-name: path4 [in,cut])
(Block-expand: 0)
(Block-enable: 1)
g0 x182.487291 y97.255309
g1 z0 f500
g1 x182.468589 y97.257711 f1200
g1 x182.447856 y97.263067
g1 x182.428038 y97.270924
g1 x182.410121 y97.280771
g1 x182.394147 y97.292379
g1 x182.379233 y97.30639
g1 x182.366657 y97.321578
g1 x182.355574 y97.33906
g1 x182.346551 y97.358161
g1 x182.340948 y97.375375
g1 x182.337163 y97.395305
g1 x182.335888 y97.415282
g1 x182.337159 y97.435182
g1 x182.340948 y97.455135
g1 x182.346551 y97.472349
g1 x182.355577 y97.491457
g1 x182.366662 y97.508942
g1 x182.379233 y97.524124
g1 x182.394147 y97.538135
g1 x182.410121 y97.549743
g1 x182.428038 y97.55959
g1 x182.447856 y97.567447
g1 x182.468589 y97.572803
g1 x182.487291 y97.575205
g1 x182.503972 y97.575205
g1 x182.522682 y97.572803
g1 x182.543405 y97.567447
g1 x182.56307 y97.559654
g1 x182.580712 y97.549949
g1 x182.596969 y97.538135
g1 x182.611883 y97.524124
g1 x182.624845 y97.50847
g1 x182.636001 y97.490903
g1 x182.644765 y97.472349
g1 x182.650368 y97.455135
g1 x182.654157 y97.435182
g1 x182.655428 y97.415282
g1 x182.654153 y97.395305
g1 x182.650368 y97.375375
g1 x182.644765 y97.358161
g1 x182.636004 y97.339614
g1 x182.62485 y97.32205
g1 x182.611883 y97.30639
g1 x182.596969 y97.292379
g1 x182.580712 y97.280565
g1 x182.56307 y97.27086
g1 x182.543405 y97.263067
g1 x182.522682 y97.257711
g1 x182.503972 y97.255309
g1 x182.487291 y97.255309
g1 z-0.5 f500
g1 x182.468589 y97.257711 f1200
g1 x182.447856 y97.263067
g1 x182.428038 y97.270924
g1 x182.410121 y97.280771
g1 x182.394147 y97.292379
g1 x182.379233 y97.30639
g1 x182.366657 y97.321578
g1 x182.355574 y97.33906
g1 x182.346551 y97.358161
g1 x182.340948 y97.375375
g1 x182.337163 y97.395305
g1 x182.335888 y97.415282
g1 x182.337159 y97.435182
g1 x182.340948 y97.455135
g1 x182.346551 y97.472349
g1 x182.355577 y97.491457
g1 x182.366662 y97.508942
g1 x182.379233 y97.524124
g1 x182.394147 y97.538135
g1 x182.410121 y97.549743
g1 x182.428038 y97.55959
g1 x182.447856 y97.567447
g1 x182.468589 y97.572803
g1 x182.487291 y97.575205
g1 x182.503972 y97.575205
g1 x182.522682 y97.572803
g1 x182.543405 y97.567447
g1 x182.56307 y97.559654
g1 x182.580712 y97.549949
g1 x182.596969 y97.538135
g1 x182.611883 y97.524124
g1 x182.624845 y97.50847
g1 x182.636001 y97.490903
g1 x182.644765 y97.472349
g1 x182.650368 y97.455135
g1 x182.654157 y97.435182
g1 x182.655428 y97.415282
g1 x182.654153 y97.395305
g1 x182.650368 y97.375375
g1 x182.644765 y97.358161
g1 x182.636004 y97.339614
g1 x182.62485 y97.32205
g1 x182.611883 y97.30639
g1 x182.596969 y97.292379
g1 x182.580712 y97.280565
g1 x182.56307 y97.27086
g1 x182.543405 y97.263067
g1 x182.522682 y97.257711
g1 x182.503972 y97.255309
g1 x182.487291 y97.255309
g1 z-1 f500
g1 x182.468589 y97.257711 f1200
g1 x182.447856 y97.263067
g1 x182.428038 y97.270924
g1 x182.410121 y97.280771
g1 x182.394147 y97.292379
g1 x182.379233 y97.30639
g1 x182.366657 y97.321578
g1 x182.355574 y97.33906
g1 x182.346551 y97.358161
g1 x182.340948 y97.375375
g1 x182.337163 y97.395305
g1 x182.335888 y97.415282
g1 x182.337159 y97.435182
g1 x182.340948 y97.455135
g1 x182.346551 y97.472349
g1 x182.355577 y97.491457
g1 x182.366662 y97.508942
g1 x182.379233 y97.524124
g1 x182.394147 y97.538135
g1 x182.410121 y97.549743
g1 x182.428038 y97.55959
g1 x182.447856 y97.567447
g1 x182.468589 y97.572803
g1 x182.487291 y97.575205
g1 x182.503972 y97.575205
g1 x182.522682 y97.572803
g1 x182.543405 y97.567447
g1 x182.56307 y97.559654
g1 x182.580712 y97.549949
g1 x182.596969 y97.538135
g1 x182.611883 y97.524124
g1 x182.624845 y97.50847
g1 x182.636001 y97.490903
g1 x182.644765 y97.472349
g1 x182.650368 y97.455135
g1 x182.654157 y97.435182
g1 x182.655428 y97.415282
g1 x182.654153 y97.395305
g1 x182.650368 y97.375375
g1 x182.644765 y97.358161
g1 x182.636004 y97.339614
g1 x182.62485 y97.32205
g1 x182.611883 y97.30639
g1 x182.596969 y97.292379
g1 x182.580712 y97.280565
g1 x182.56307 y97.27086
g1 x182.543405 y97.263067
g1 x182.522682 y97.257711
g1 x182.503972 y97.255309
g1 x182.487291 y97.255309
g1 z-1.5 f500
g1 x182.468589 y97.257711 f1200
g1 x182.447856 y97.263067
g1 x182.428038 y97.270924
g1 x182.410121 y97.280771
g1 x182.394147 y97.292379
g1 x182.379233 y97.30639
g1 x182.366657 y97.321578
g1 x182.355574 y97.33906
g1 x182.346551 y97.358161
g1 x182.340948 y97.375375
g1 x182.337163 y97.395305
g1 x182.335888 y97.415282
g1 x182.337159 y97.435182
g1 x182.340948 y97.455135
g1 x182.346551 y97.472349
g1 x182.355577 y97.491457
g1 x182.366662 y97.508942
g1 x182.379233 y97.524124
g1 x182.394147 y97.538135
g1 x182.410121 y97.549743
g1 x182.428038 y97.55959
g1 x182.447856 y97.567447
g1 x182.468589 y97.572803
g1 x182.487291 y97.575205
g1 x182.503972 y97.575205
g1 x182.522682 y97.572803
g1 x182.543405 y97.567447
g1 x182.56307 y97.559654
g1 x182.580712 y97.549949
g1 x182.596969 y97.538135
g1 x182.611883 y97.524124
g1 x182.624845 y97.50847
g1 x182.636001 y97.490903
g1 x182.644765 y97.472349
g1 x182.650368 y97.455135
g1 x182.654157 y97.435182
g1 x182.655428 y97.415282
g1 x182.654153 y97.395305
g1 x182.650368 y97.375375
g1 x182.644765 y97.358161
g1 x182.636004 y97.339614
g1 x182.62485 y97.32205
g1 x182.611883 y97.30639
g1 x182.596969 y97.292379
g1 x182.580712 y97.280565
g1 x182.56307 y97.27086
g1 x182.543405 y97.263067
g1 x182.522682 y97.257711
g1 x182.503972 y97.255309
g1 x182.487291 y97.255309
g0 z30
(Block-name: path4)
(Block-expand: 0)
(Block-enable: 0)

(End cutting path id: path4)


(Start cutting path id: path4)
(Change tool to Default tool)

G00 Z20.000000
G00 X149.885758 Y95.667809

G01 Z-0.125000 F100.0(Penetrate)
G01 X149.667758 Y95.695809 Z-0.125000 F400.000000
G01 X149.454858 Y95.750809 Z-0.125000
G01 X149.250558 Y95.831809 Z-0.125000
G01 X149.057858 Y95.937709 Z-0.125000
G01 X148.880058 Y96.066909 Z-0.125000
G01 X148.719858 Y96.217409 Z-0.125000
G01 X148.579758 Y96.386609 Z-0.125000
G01 X148.462158 Y96.572105 Z-0.125000
G01 X148.368158 Y96.771105 Z-0.125000
G01 X148.300158 Y96.980005 Z-0.125000
G01 X148.259158 Y97.195905 Z-0.125000
G01 X148.245158 Y97.415305 Z-0.125000
G01 X148.259158 Y97.634605 Z-0.125000
G01 X148.300158 Y97.850505 Z-0.125000
G01 X148.368158 Y98.059405 Z-0.125000
G01 X148.462158 Y98.258405 Z-0.125000
G01 X148.579758 Y98.443905 Z-0.125000
G01 X148.719858 Y98.613105 Z-0.125000
G01 X148.880058 Y98.763605 Z-0.125000
G01 X149.057858 Y98.892805 Z-0.125000
G01 X149.250558 Y98.998705 Z-0.125000
G01 X149.454858 Y99.079705 Z-0.125000
G01 X149.667758 Y99.134705 Z-0.125000
G01 X149.885758 Y99.162705 Z-0.125000
G01 X150.105458 Y99.162705 Z-0.125000
G01 X150.323558 Y99.134705 Z-0.125000
G01 X150.536358 Y99.079705 Z-0.125000
G01 X150.740758 Y98.998705 Z-0.125000
G01 X150.933258 Y98.892805 Z-0.125000
G01 X151.111058 Y98.763605 Z-0.125000
G01 X151.271258 Y98.613105 Z-0.125000
G01 X151.411358 Y98.443905 Z-0.125000
G01 X151.529158 Y98.258405 Z-0.125000
G01 X151.622158 Y98.059405 Z-0.125000
G01 X151.690158 Y97.850505 Z-0.125000
G01 X151.731158 Y97.634605 Z-0.125000
G01 X151.745158 Y97.415305 Z-0.125000
G01 X151.731158 Y97.195905 Z-0.125000
G01 X151.690158 Y96.980005 Z-0.125000
G01 X151.622158 Y96.771105 Z-0.125000
G01 X151.529158 Y96.572105 Z-0.125000
G01 X151.411358 Y96.386609 Z-0.125000
G01 X151.271258 Y96.217409 Z-0.125000
G01 X151.111058 Y96.066909 Z-0.125000
G01 X150.933258 Y95.937709 Z-0.125000
G01 X150.740758 Y95.831809 Z-0.125000
G01 X150.536358 Y95.750809 Z-0.125000
G01 X150.323558 Y95.695809 Z-0.125000
G01 X150.105458 Y95.667809 Z-0.125000
G01 X149.885758 Y95.667809 Z-0.125000
G00 Z20.000000
(Block-name: path4 [in,cut])
(Block-expand: 0)
(Block-enable: 1)
g0 x149.987291 y97.255309
g1 z0 f500
g1 x149.968589 y97.257711 f1200
g1 x149.947856 y97.263067
g1 x149.928038 y97.270924
g1 x149.910121 y97.280771
g1 x149.894147 y97.292379
g1 x149.879233 y97.30639
g1 x149.866657 y97.321578
g1 x149.855574 y97.33906
g1 x149.846551 y97.358161
g1 x149.840948 y97.375375
g1 x149.837163 y97.395305
g1 x149.835888 y97.415282
g1 x149.837159 y97.435182
g1 x149.840948 y97.455135
g1 x149.846551 y97.472349
g1 x149.855577 y97.491457
g1 x149.866662 y97.508942
g1 x149.879233 y97.524124
g1 x149.894147 y97.538135
g1 x149.910121 y97.549743
g1 x149.928038 y97.55959
g1 x149.947856 y97.567447
g1 x149.968589 y97.572803
g1 x149.987291 y97.575205
g1 x150.003972 y97.575205
g1 x150.022682 y97.572803
g1 x150.043405 y97.567447
g1 x150.06307 y97.559654
g1 x150.080712 y97.549949
g1 x150.096969 y97.538135
g1 x150.111883 y97.524124
g1 x150.124845 y97.50847
g1 x150.134242 y97.493673
g1 x150.142749 y97.475469
g1 x150.149368 y97.455135
g1 x150.153157 y97.435182
g1 x150.154428 y97.415282
g1 x150.153153 y97.395305
g1 x150.149368 y97.375375
g1 x150.142749 y97.355041
g1 x150.134245 y97.336845
g1 x150.12485 y97.32205
g1 x150.111883 y97.30639
g1 x150.096969 y97.292379
g1 x150.080712 y97.280565
g1 x150.06307 y97.27086
g1 x150.043405 y97.263067
g1 x150.022682 y97.257711
g1 x150.003972 y97.255309
g1 x149.987291 y97.255309
g1 z-0.5 f500
g1 x149.968589 y97.257711 f1200
g1 x149.947856 y97.263067
g1 x149.928038 y97.270924
g1 x149.910121 y97.280771
g1 x149.894147 y97.292379
g1 x149.879233 y97.30639
g1 x149.866657 y97.321578
g1 x149.855574 y97.33906
g1 x149.846551 y97.358161
g1 x149.840948 y97.375375
g1 x149.837163 y97.395305
g1 x149.835888 y97.415282
g1 x149.837159 y97.435182
g1 x149.840948 y97.455135
g1 x149.846551 y97.472349
g1 x149.855577 y97.491457
g1 x149.866662 y97.508942
g1 x149.879233 y97.524124
g1 x149.894147 y97.538135
g1 x149.910121 y97.549743
g1 x149.928038 y97.55959
g1 x149.947856 y97.567447
g1 x149.968589 y97.572803
g1 x149.987291 y97.575205
g1 x150.003972 y97.575205
g1 x150.022682 y97.572803
g1 x150.043405 y97.567447
g1 x150.06307 y97.559654
g1 x150.080712 y97.549949
g1 x150.096969 y97.538135
g1 x150.111883 y97.524124
g1 x150.124845 y97.50847
g1 x150.134242 y97.493673
g1 x150.142749 y97.475469
g1 x150.149368 y97.455135
g1 x150.153157 y97.435182
g1 x150.154428 y97.415282
g1 x150.153153 y97.395305
g1 x150.149368 y97.375375
g1 x150.142749 y97.355041
g1 x150.134245 y97.336845
g1 x150.12485 y97.32205
g1 x150.111883 y97.30639
g1 x150.096969 y97.292379
g1 x150.080712 y97.280565
g1 x150.06307 y97.27086
g1 x150.043405 y97.263067
g1 x150.022682 y97.257711
g1 x150.003972 y97.255309
g1 x149.987291 y97.255309
g1 z-1 f500
g1 x149.968589 y97.257711 f1200
g1 x149.947856 y97.263067
g1 x149.928038 y97.270924
g1 x149.910121 y97.280771
g1 x149.894147 y97.292379
g1 x149.879233 y97.30639
g1 x149.866657 y97.321578
g1 x149.855574 y97.33906
g1 x149.846551 y97.358161
g1 x149.840948 y97.375375
g1 x149.837163 y97.395305
g1 x149.835888 y97.415282
g1 x149.837159 y97.435182
g1 x149.840948 y97.455135
g1 x149.846551 y97.472349
g1 x149.855577 y97.491457
g1 x149.866662 y97.508942
g1 x149.879233 y97.524124
g1 x149.894147 y97.538135
g1 x149.910121 y97.549743
g1 x149.928038 y97.55959
g1 x149.947856 y97.567447
g1 x149.968589 y97.572803
g1 x149.987291 y97.575205
g1 x150.003972 y97.575205
g1 x150.022682 y97.572803
g1 x150.043405 y97.567447
g1 x150.06307 y97.559654
g1 x150.080712 y97.549949
g1 x150.096969 y97.538135
g1 x150.111883 y97.524124
g1 x150.124845 y97.50847
g1 x150.134242 y97.493673
g1 x150.142749 y97.475469
g1 x150.149368 y97.455135
g1 x150.153157 y97.435182
g1 x150.154428 y97.415282
g1 x150.153153 y97.395305
g1 x150.149368 y97.375375
g1 x150.142749 y97.355041
g1 x150.134245 y97.336845
g1 x150.12485 y97.32205
g1 x150.111883 y97.30639
g1 x150.096969 y97.292379
g1 x150.080712 y97.280565
g1 x150.06307 y97.27086
g1 x150.043405 y97.263067
g1 x150.022682 y97.257711
g1 x150.003972 y97.255309
g1 x149.987291 y97.255309
g1 z-1.5 f500
g1 x149.968589 y97.257711 f1200
g1 x149.947856 y97.263067
g1 x149.928038 y97.270924
g1 x149.910121 y97.280771
g1 x149.894147 y97.292379
g1 x149.879233 y97.30639
g1 x149.866657 y97.321578
g1 x149.855574 y97.33906
g1 x149.846551 y97.358161
g1 x149.840948 y97.375375
g1 x149.837163 y97.395305
g1 x149.835888 y97.415282
g1 x149.837159 y97.435182
g1 x149.840948 y97.455135
g1 x149.846551 y97.472349
g1 x149.855577 y97.491457
g1 x149.866662 y97.508942
g1 x149.879233 y97.524124
g1 x149.894147 y97.538135
g1 x149.910121 y97.549743
g1 x149.928038 y97.55959
g1 x149.947856 y97.567447
g1 x149.968589 y97.572803
g1 x149.987291 y97.575205
g1 x150.003972 y97.575205
g1 x150.022682 y97.572803
g1 x150.043405 y97.567447
g1 x150.06307 y97.559654
g1 x150.080712 y97.549949
g1 x150.096969 y97.538135
g1 x150.111883 y97.524124
g1 x150.124845 y97.50847
g1 x150.134242 y97.493673
g1 x150.142749 y97.475469
g1 x150.149368 y97.455135
g1 x150.153157 y97.435182
g1 x150.154428 y97.415282
g1 x150.153153 y97.395305
g1 x150.149368 y97.375375
g1 x150.142749 y97.355041
g1 x150.134245 y97.336845
g1 x150.12485 y97.32205
g1 x150.111883 y97.30639
g1 x150.096969 y97.292379
g1 x150.080712 y97.280565
g1 x150.06307 y97.27086
g1 x150.043405 y97.263067
g1 x150.022682 y97.257711
g1 x150.003972 y97.255309
g1 x149.987291 y97.255309
g0 z30
(Block-name: block)
(Block-expand: 0)
(Block-enable: 1)

(End cutting path id: path4)


(Footer)
M5
G00 X0.0000 Y0.0000
M2
(Using default footer. To add your own footer create file "footer" in the output dir.)
(end)

